X:1
T:Ego sum panis vivus
T:Victoria
T:Ego sum panis vivus
T:Copyright © 2014 by CPDL.  This edition can be fully distributed, duplicated, performed, and recorded 
T:Copyright © 2014 by CPDL.  This edition can be fully distributed, duplicated, performed, and recorded 
T:Copyright © 2014 by CPDL.  This edition can be fully distributed, duplicated, performed, and recorded 
T:Copyright © 2014 by CPDL.  This edition can be fully distributed, duplicated, performed, and recorded 
T:Copyright © 2014 by CPDL.  This edition can be fully distributed, duplicated, performed, and recorded 
T:Copyright © 2014 by CPDL.  This edition can be fully distributed, duplicated, performed, and recorded 
T:Copyright © 2014 by CPDL.  This edition can be fully distributed, duplicated, performed, and recorded 
T:Copyright © 2014 by CPDL.  This edition can be fully distributed, duplicated, performed, and recorded 
T:Copyright © 2014 by CPDL.  This edition can be fully distributed, duplicated, performed, and recorded 
T:Copyright © 2014 by CPDL.  This edition can be fully distributed, duplicated, performed, and recorded 
T:Copyright © 2014 by CPDL.  This edition can be fully distributed, duplicated, performed, and recorded 
C:Victoria
Z:Copyright © 2014 by CPDL.  This edition can be fully distributed, duplicated, performed, and recorded
%%score [ 1 2 3 4 ]
L:1/8
Q:1/2=112
M:4/2
K:C
V:1 treble nm="Soprano" snm="S."
V:2 treble nm="Alto" snm="A."
V:3 treble-8 transpose=-12 nm="Tenor" snm="T."
V:4 bass nm="Bass" snm="B."
V:1
"^John 6:  I am the living bread that came down from heaven; whoever eats this bread will live forever; and the bread that I will give is my flesh for the life of the world." A16 | %1
w: E-|
 G8 A8 | z4 D6 E2 F2 G2 | A2 B2 c4 B4 A4- | A2 ^G^F G4 A8 | z4 c8 B4 | A4 G8 F4 | %7
w: go sum|pa- * * *|* * * nis vi-|* * * * vus|qui de|cae- lo de-|
 E2 D2 E2 F2 G6 F2 | E8 F6 G2 | A16 | z16 | z16 | z16 | z16 | z16 | A16 | c12 B4 | A4 G4 F8 | %18
w: scen- * * * * *|* di, _|_||||||e-|go sum|pa- nis vi-|
 E4 A8 B4 | c4 B6 A2 A4- | A2 GF G4 F2 E2 F2 G2 | A4 F6 ED E4 | F4 A4 B4 c4- | c2 B2 A4 G4 E4 | %24
w: vus qui de|cae- lo de- scen-|||di, qui de cae-|* * * lo de-|
 F8 E8 | z4 A4 B4 c4- | c2 B2 A2 G2 F2 E2 F4 | E4 D8 ^C4 | D16 | z4 F8 G4 | A4 B4 c6 c2 | %31
w: scen- di,|qui de cae-||lo de- scen-|di.|Si quis|man- du- ca- ve-|
 _B4 A8 G4 | F6 ED E8 | D4 A8 A4 | A4 G4 F6 F2 | E8 z8 | z16 | z8 z4 D4- | D2 E2 F2 G2 A4 D4 | %39
w: rit ex hoc|pa- * * *|ne, si quis|man- du- ca- ve-|rit,||vi-|* * * * * vet|
 F2 G2 A2 B2 c4 A4 | B2 c2 d6 ^cB c4 | d8 z4 D4- | D2 E2 F2 G2 A4 A4 | G4 ^F4 G8 | %44
w: in _ _ _ _ ae-|ter- * * * * *|num, vi-|* * * * * vet|in ae- ter-|
 =F4 D2 E2 F2 G2 A2 B2 | c4 A4 G6 E2 | ^F2 ^G2 A6 GF G4 | A4 E4 F8 | E4 C4 E2 D2 E2 F2 | %49
w: num, vi- * * * * *|* vet in ae-|ter- * * * * *|num. Et pa-|nis quem e- * * *|
 G4 G4 C6 D2 | E8 E8 | z16 | z16 | z8 z4 E4 | A8 G4 E4 | G2 F2 G2 A2 B4 B4 | c12 B4 | %57
w: * go da- *|* bo,|||et|pa- nis quem|e- * * * * go|da- bo|
 G4 A4 B4 ^c4 | d12 =c4 | B4 A4 G6 F2 | E2 D2 D6 ^CB, C4 | D16 | z16 | z16 | z8 z4 D4 | %65
w: ca- ro me- a|est pro|mun- di vi- *||ta.|||Al-|
 E2 F2 G2 E2 F2 G2 A4 | G2 F2 F2 ED E2 F2 E4 | D8 z8 | z16 | z4 E4 F2 G2 A2 F2 | %70
w: le- * * * * * *|lu- * * * * * * *|ia,||al- le- * * *|
 G2 E2 F2 G2 A2 B2 c4 | B2 A2 A6 ^G^F G4 | A4 A4 G4 ^F4 | G4 C4 D2 E2 F2 D2 | E4 D6 ^CB, C4 | %75
w: |lu- * * * * *|ia, al- le- lu-|ia, al- le- * * *|* lu- * * *|
 D16 |] %76
w: ia.|
V:2
 z16 | z8 D8- | D8 F8- | F4 E4 D4 C4 | B,8 A,4 D4 | D4 E4 F2 E2 D2 E2 | F2 D2 E8 D4 | %7
w: |E-|* go|_ sum pa- nis|vi- vus, e-|go sum pa- * * *|* * * nis|
 C2 B,2 C2 D2 E4 D4- | D2 ^CB, C4 D4 F4 | D4 F6 ED C4 | D4 E4 F2 ED E4 | D8 z8 | z16 | z8 D8- | %14
w: vi- * * * * *|* * * * vus qui|de cae- * * *|lo de- scen- * * *|di,||e-|
 D8 ^C8 | D8 z4 A,4- | A,2 B,2 C2 D2 E2 F2 G4 | F4 E6 DC D4 | E4 F4 E4 D4 | C4 D6 C2 C2 B,A, | %20
w: * go|sum pa-||nis vi- * * *|vus, qui de cae-|lo de- * * * *|
 B,8 A,6 G,2 | F,8 G,8 | F,4 F4 E2 D2 C2 B,2 | A,4 E8 D2 C2 | D8 G,4 G4- | G4 F2 E2 F4 E2 D2 | %26
w: * scen- *||di, de- scen- * * *||* di, de-|* scen- * * * *|
 C4 D6 C2 A,2 B,2 | C2 G,2 _B,4 A,8- | A,8 z4 =F4- | F4 D4 F4 E4 | D6 D2 C2 D2 E2 F2 | %31
w: |* * * di.|_ Si|_ quis man- du-|ca- ve- rit _ _ _|
 G4 C4 D4 E4- | E2 D2 D6 ^CB, C4 | D16 | z16 | z16 | z16 | z16 | F16- | F8 F8 | E4 D4 E8 | %41
w: _ ex hoc pa-||ne,|||||vi-|* vet|in ae- ter-|
 D4 D,2 E,2 F,2 G,2 A,4 | D,8 z8 | z16 | z4 A,6 B,2 C2 D2 | E12 E4 | D4 C4 E8 | C6 B,2 A,4 A,4 | %48
w: |num,||vi- * * *|* vet|in ae- ter-|num. _ _ Et|
 C16 | B,4 C4 C4 A,4 | B,8 C8 | z8 z4 A,4 | D8 C4 A,4 | C2 B,2 C2 D2 E4 E4 | F8 E8 | C8 D4 E4- | %56
w: pa-|nis quem e- go|da- bo,|et|pa- nis quem|e- * * * * go|da- bo|ca- ro me-|
 E4 F4 G4 D4 | D12 E4 | ^F8 G8 | z4 D4 D4 C4 | _B,8 A,8- | A,8 z8 | z16 | z16 | %64
w: * a est pro|mun- di|vi- ta,|pro mun- di|vi- ta.|_|||
 z4 A,4 B,2 C2 D2 B,2 | C2 D2 E4 D2 C2 C2 B,A, | B,2 ^C2 D6 CB, C4 | D8 z8 | z16 | z8 z4 A,4 | %70
w: Al- le- * * *|* * * lu- * * * *||ia,||al-|
 B,2 C2 D2 B,2 C2 D2 E4 | D2 C2 C2 B,A, B,2 C2 B,4 | A,4 C4 B,4 A,4 | C6 G,2 A,2 B,2 C2 A,2 | %74
w: le- * * * * * *|lu- * * * * * * *|ia, al- le- lu-|ia, al- le- * * *|
 _B,2 A,2 F,2 G,2 A,4 A,4 | A,16 |] %76
w: * * * * * lu-|ia.|
V:3
 z16 | z16 | z16 | z16 | z16 | z16 | z8 A8- | A8 G8 | A16 | z4 D6 E2 F2 G2 | A2 B2 c4 B4 A4- | %11
w: ||||||E-|* go|sum|pa- * * *|* * * nis vi-|
 A2 ^G^F G4 A8 | z4 c8 B4 | A4 G4 F4 G4- | G2 F2 E2 D2 E8 | D16 | z16 | A16 | c12 B4 | A4 G4 F8 | %20
w: * * * * vus,|qui de|cae- lo de- scen-||di,||e-|go sum|pa- nis vi-|
 E8 z4 A4- | A4 B4 c6 B2 | A2 G2 F4 G4 A4 | c8 B4 A4- | A4 B4 c6 B2 | A2 G2 A6 GF G4 | A12 F4 | %27
w: vus, qui|_ de cae- *|* * * lo de-|scen- * *|||di, de-|
 G6 F2 E2 D2 E4 | ^F6 G2 A8 | z4 D8 E4 | F4 G4 A6 A2 | G4 F8 G4 | _B8 A8 | D8 z4 F4- | %34
w: scen- * * * *|di. _ _|Si quis|man- du- ca- ve-|rit ex hoc|pa- *|ne, si|
 F4 G4 A4 B4 | c6 c2 B4 A4- | A4 G4 F6 ED | E8 D2 E2 F2 G2 | A8 z4 D4- | D2 E2 F2 G2 A4 F4 | %40
w: * quis man- du-|ca- ve- rit ex|_ hoc pa- * *|* ne, _ _ _|_ vi-|* * * * * vet|
 G4 _B4 A4 A4 | D2 E2 F2 G2 A4 D4 | F2 G2 A2 B2 c4 A4 | B2 c2 d6 ^cB c4 | d8 z8 | =c12 c4 | %46
w: in ae- ter- num,|vi- * * * * vet|in _ _ _ _ ae-|ter- * * * * *|num,|vi- vet|
 B4 A4 B8 | A8 z4 D4 | A8 G8 | z4 E4 A8 | G4 E4 G2 F2 G2 A2 | B4 B4 c8- | c4 B4 c8 | A8 B4 c4 | %54
w: in ae- ter-|num. Et|pa- nis,|et pa-|nis quem e- * * *|* go da-|* * bo|ca- ro me-|
 d4 d4 B4 c4- | c4 B2 A2 G8 | A8 G8 | z8 G8 | A4 B8 c4 | d6 c2 B4 A4 | G6 F2 E8 | %61
w: a est pro mun-|* di _ _|vi- ta,|ca-|ro me- a|est pro mun- di|vi- * *|
 D4 A4 B2 c2 d2 B2 | c2 d2 e4 d2 c2 c2 BA | B2 c2 d6 ^cB c4 | d16 | z8 z4 F4 | G4 _B4 A8 | %67
w: ta. Al- le- * * *|* * * lu- * * * *||ia,|al-|le- lu- ia,|
 z4 D4 E2 F2 G2 E2 | F2 G2 A4 G2 F2 F2 ED | E2 F2 E4 D8 | z16 | z8 z4 B4 | c4 e4 d4 D4 | %73
w: al- le- * * *|* * * lu- * * * *|* * * ia,||al-|le- lu- ia, al-|
 E2 F2 G2 E2 F2 G2 A4 | G2 F2 F2 ED E2 F2 E4 | D16 |] %76
w: le- * * * * * *|lu- * * * * * * *|ia.|
V:4
 z16 | z16 | z16 | z16 | z16 | z16 | z16 | z16 | z8 D,8- | D,8 F,8- | F,4 E,4 D,4 C,4 | %11
w: ||||||||E-|* go|_ sum pa- nis|
 B,,8 A,,4 D,4- | D,4 E,4 F,2 E,2 D,2 E,2 | F,2 D,2 E,4 D,2 C,2 B,,2 A,,2 | G,,4 _B,,4 A,,8 | %15
w: vi- vus, qui|_ de cae- * * *|* * * lo _ _ _|_ de- scen-|
 D,4 F,4 D,4 F,4- | F,2 G,2 A,6 G,2 E,4 | F,4 C,4 D,8 | A,,8 z8 | z16 | z8 D,8- | D,8 C,8 | %22
w: di, qui de cae-||lo de- scen-|di,||e-|* go|
 D,8 z4 A,,4- | A,,2 B,,2 C,2 D,2 E,4 A,,4 | D,8 C,8 | D,12 E,4 | F,6 E,2 D,8 | C,4 G,,4 A,,8 | %28
w: sum pa-|* * * * * nis|vi- vus,|qui de|cae- * *|lo de- scen-|
 D,16- | D,8 z8 | z16 | z16 | z16 | z4 F,8 D,4 | F,4 E,4 D,6 D,2 | C,2 D,2 E,2 F,2 G,4 C,4 | %36
w: di.|_||||Si quis|man- du- ca- ve-|rit _ _ _ _ ex|
 D,4 E,6 D,2 D,4- | D,2 ^C,B,, C,4 D,8- | D,16 | z16 | z16 | F,16- | F,8 F,8 | E,4 D,4 E,8 | %44
w: hoc pa- * *|* * * * ne,|_|||vi-|* vet|in ae- ter-|
 D,8 z4 A,,4- | A,,2 B,,2 C,2 D,2 E,4 C,4 | D,4 F,4 E,8 | A,,4 A,,4 D,8 | %48
w: num, vi-|* * * * * vet|in ae- ter-|num. Et pa-|
 C,4 A,,4 C,2 B,,2 C,2 D,2 | E,4 E,4 F,8 | E,8 C,8 | D,4 E,8 F,4 | G,8 A,4 F,4- | %53
w: nis quem e- * * *|* go da-|bo ca-|ro me- a|est pro mun-|
 F,2 G,2 A,2 F,2 G,4 A,4 | D,8 E,8 | z16 | z8 z4 G,4- | G,4 ^F,4 G,4 E,4 | D,8 G,,8 | G,,16 | %60
w: * * * * * di|vi- ta,||ca-|* ro me- a|est pro|mun-|
 G,,8 A,,8 | D,8 z4 D,4 | E,2 F,2 G,2 E,2 F,2 G,2 A,4 | G,2 F,2 F,2 E,D, E,2 F,2 E,4 | D,8 z8 | %65
w: di vi-|ta. Al-|le- * * * * * *|lu- * * * * * * *|ia,|
 z16 | z8 z4 A,,4 | B,,2 C,2 D,2 B,,2 C,2 D,2 E,4 | D,2 C,2 C,2 B,,A,, B,,2 C,2 D,4- | %69
w: |al-|le- * * * * * *|lu- * * * * * * *|
 D,2 ^C,B,, C,4 D,8 | z8 z4 C,4 | D,4 F,4 E,8 | A,,8 B,,4 D,4 | C,8 z4 F,,4 | %74
w: * * * * ia,|al-|le- lu- ia,|al- le- lu-|ia, al-|
 (3G,,4 A,,4 _B,,4 A,,8 | D,16 |] %76
w: le- * * lu-|ia.|

